X:72
T:Bob Derry's Hornpipe. ThoH.072
Q:1/2=80
M:C
L:1/8
B:Thompson's Compleat Collection of 120 Favourite Hornpipes.
Z:Village Music Project, Simon Wilson 2016
N:marked as demi-semi-quavers in book, but altered for arithmetical reasons
O:England.
K:A
"^NB"(e/d/c/B/)|A2A,4(dc/B/)|cAa4Tc2|(3(def) ed dcBA|(3(cde) dc {c}B2"^NB"(e/d/c/B/)|
A2A,4(dc/B/)|cAa4gf|a<gf<e g<fe<^d|{d}e2e2e2:|
|:ed|cA EC A,CEA|cAaA fAeA|cAfd ecdB|(3(cde) dc{c}B2ed|
cAEC A,CEA|cAaA fAeA|(3(fga) ec dBAG|{G}A2A2A2:|

